src/ios-globe-outline.svg

<svg xmlns="http://www.w3.org/2000/svg" width="512" height="512" style="enable-background:new 0 0 512 512" xml:space="preserve"><path d="M256 48h-.5C140.8 48.3 48 141.3 48 256s92.8 207.7 207.5 208h.5c114.9 0 208-93.1 208-208S370.9 48 256 48zm8.3 124.5c22.1-.6 43.5-3.5 64.2-8.5 6.2 24.5 10.1 52.8 10.7 83.8h-74.9v-75.3zm0-16.7V66c22.4 6.2 45.2 36.1 59.6 82-19.2 4.6-39.1 7.2-59.6 7.8zm-16.6-90v90.1c-20.7-.6-40.8-3.3-60.1-8 14.6-46.2 37.5-76.3 60.1-82.1zm0 106.7v75.2h-75.4c.6-31 4.5-59.3 10.7-83.8 20.8 5 42.5 8 64.7 8.6zm-92.2 75.2H64.9c1.8-42.8 17.8-82 43.3-113 18.5 10.2 38.2 18.6 58.8 24.8-6.8 26.5-10.8 56.4-11.5 88.2zm0 16.6c.6 31.7 4.6 61.7 11.4 88.2-20.6 6.3-40.2 14.6-58.8 24.8-25.5-31-41.4-70.2-43.3-113h90.7zm16.8 0h75.4v75.1c-22.2.6-43.9 3.6-64.7 8.7-6.2-24.5-10.1-52.8-10.7-83.8zm75.4 91.8v90.2c-22.6-5.9-45.5-35.9-60.1-82.1 19.3-4.8 39.4-7.5 60.1-8.1zm16.6 89.9v-90c20.5.6 40.4 3.3 59.7 7.9-14.5 46-37.2 75.9-59.7 82.1zm0-106.6v-75.1h74.9c-.6 30.9-4.5 59.2-10.7 83.7-20.7-5-42.1-8-64.2-8.6zm91.6-75.1h91.2c-1.8 42.8-17.8 81.9-43.3 113-18.7-10.3-38.5-18.7-59.3-25 6.8-26.5 10.8-56.3 11.4-88zm0-16.6c-.6-31.7-4.6-61.6-11.3-88.1 20.8-6.3 40.6-14.7 59.2-24.9 25.5 31 41.5 70.2 43.3 113.1h-91.2zm36.5-125.8c-16.6 8.8-34 16.1-52.3 21.6-9.7-31.3-23.4-56.8-39.5-73.6 35.4 8.5 67 26.9 91.8 52zM210.8 70.1c-16.1 16.7-29.7 42.2-39.3 73.3-18.1-5.5-35.4-12.7-51.8-21.5 24.5-25 55.9-43.3 91.1-51.8zM119.6 390c16.4-8.8 33.8-16 51.8-21.5 9.7 31.2 23.3 56.6 39.4 73.4-35.2-8.5-66.6-26.8-91.2-51.9zm181 52.1c16.2-16.8 29.8-42.3 39.6-73.7 18.3 5.5 35.7 12.8 52.3 21.6-24.8 25.2-56.5 43.6-91.9 52.1z"/></svg>

<?xml version="1.0" encoding="utf-8"?>
<!-- Generator: Adobe Illustrator 16.2.1, SVG Export Plug-In . SVG Version: 6.00 Build 0)  -->
<!DOCTYPE svg PUBLIC "-//W3C//DTD SVG 1.1//EN" "http://www.w3.org/Graphics/SVG/1.1/DTD/svg11.dtd">
<svg version="1.1" id="Layer_1" xmlns="http://www.w3.org/2000/svg" xmlns:xlink="http://www.w3.org/1999/xlink" x="0px" y="0px"
	 width="512px" height="512px" viewBox="0 0 512 512" style="enable-background:new 0 0 512 512;" xml:space="preserve">
<path d="M256,48c-0.1,0-0.1,0-0.2,0c0,0,0,0-0.1,0c-0.1,0-0.2,0-0.2,0C140.8,48.3,48,141.3,48,256c0,114.7,92.8,207.7,207.5,208
	c0.1,0,0.2,0,0.2,0c0,0,0.1,0,0.1,0c0.1,0,0.1,0,0.2,0c114.9,0,208-93.1,208-208C464,141.1,370.9,48,256,48z M264.3,172.5
	c22.1-0.6,43.5-3.5,64.2-8.5c6.2,24.5,10.1,52.8,10.7,83.8h-74.9V172.5z M264.3,155.8V66c22.4,6.2,45.2,36.1,59.6,82
	C304.7,152.6,284.8,155.2,264.3,155.8z M247.7,65.8v90.1c-20.7-0.6-40.8-3.3-60.1-8C202.2,101.7,225.1,71.6,247.7,65.8z
	 M247.7,172.5v75.2h-75.4c0.6-31,4.5-59.3,10.7-83.8C203.8,168.9,225.5,171.9,247.7,172.5z M155.5,247.7H64.9
	c1.8-42.8,17.8-82,43.3-113c18.5,10.2,38.2,18.6,58.8,24.8C160.2,186,156.2,215.9,155.5,247.7z M155.5,264.3
	c0.6,31.7,4.6,61.7,11.4,88.2c-20.6,6.3-40.2,14.6-58.8,24.8c-25.5-31-41.4-70.2-43.3-113H155.5z M172.3,264.3h75.4v75.1
	c-22.2,0.6-43.9,3.6-64.7,8.7C176.8,323.6,172.9,295.3,172.3,264.3z M247.7,356.1v90.2c-22.6-5.9-45.5-35.9-60.1-82.1
	C206.9,359.4,227,356.7,247.7,356.1z M264.3,446v-90c20.5,0.6,40.4,3.3,59.7,7.9C309.5,409.9,286.8,439.8,264.3,446z M264.3,339.4
	v-75.1h74.9c-0.6,30.9-4.5,59.2-10.7,83.7C307.8,343,286.4,340,264.3,339.4z M355.9,264.3h91.2c-1.8,42.8-17.8,81.9-43.3,113
	c-18.7-10.3-38.5-18.7-59.3-25C351.3,325.8,355.3,296,355.9,264.3z M355.9,247.7c-0.6-31.7-4.6-61.6-11.3-88.1
	c20.8-6.3,40.6-14.7,59.2-24.9c25.5,31,41.5,70.2,43.3,113.1H355.9z M392.4,121.9c-16.6,8.8-34,16.1-52.3,21.6
	c-9.7-31.3-23.4-56.8-39.5-73.6C336,78.4,367.6,96.8,392.4,121.9z M210.8,70.1c-16.1,16.7-29.7,42.2-39.3,73.3
	c-18.1-5.5-35.4-12.7-51.8-21.5C144.2,96.9,175.6,78.6,210.8,70.1z M119.6,390c16.4-8.8,33.8-16,51.8-21.5
	c9.7,31.2,23.3,56.6,39.4,73.4C175.6,433.4,144.2,415.1,119.6,390z M300.6,442.1c16.2-16.8,29.8-42.3,39.6-73.7
	c18.3,5.5,35.7,12.8,52.3,21.6C367.7,415.2,336,433.6,300.6,442.1z"/>
</svg>
